svgs/genius.svg

<svg width="24" height="24" viewBox="0 0 24 24" fill="none" xmlns="http://www.w3.org/2000/svg"><path d="m17.365 2 .001.004c.163.243.313.494.456.751.049.088.093.177.14.266.098.189.19.38.277.575.04.092.083.184.12.277.107.261.207.527.293.798.006.022.015.041.022.063.09.293.164.593.229.895a10.108 10.108 0 0 1 .158.964c.011.094.023.188.032.284.03.317.05.639.05.964 0 3.9-2.137 7.298-5.3 9.101-.732.418-1.52.744-2.349.977a10.17 10.17 0 0 1-1.23.262c-.108.017-.216.037-.325.05-.42.052-.84.086-1.272.086-.325 0-.647-.02-.964-.048-.095-.009-.19-.022-.284-.034a10.775 10.775 0 0 1-.689-.104c-.092-.017-.184-.033-.275-.052a10.293 10.293 0 0 1-.895-.229c-.022-.007-.041-.017-.063-.024a10.46 10.46 0 0 1-.798-.29c-.093-.038-.185-.08-.277-.121a10 10 0 0 1-.575-.277 10.728 10.728 0 0 1-1.017-.597l-.004-.002a10.468 10.468 0 0 0 8.698 4.635C17.31 21.174 22 16.484 22 10.698 22 7.075 20.16 3.88 17.365 2ZM4.37 3.079a11.27 11.27 0 0 0-.927.978c-.745.894-1.29 1.96-1.41 3.118a6.662 6.662 0 0 0 3.571 6.585 6.635 6.635 0 0 1-.747-3.062c0-1.815.728-3.46 1.905-4.662V3.08H4.37Zm7.154 0v3.333a2.38 2.38 0 0 1-1.862 2.322A2.376 2.376 0 0 0 12 10.698a2.38 2.38 0 0 0 2.381-2.381V5.936h.952l-.952-2.857h-2.857Z" fill="#000"/></svg>

<svg id="vector" xmlns="http://www.w3.org/2000/svg" width="24" height="24" viewBox="0 0 24 24"><path fill="#000000" d="M17.365,2C17.365,2.001 17.365,2.003 17.366,2.004C17.529,2.247 17.679,2.498 17.822,2.755C17.871,2.843 17.915,2.932 17.962,3.021C18.06,3.21 18.152,3.402 18.239,3.596C18.28,3.688 18.322,3.78 18.36,3.873C18.466,4.134 18.566,4.4 18.652,4.671C18.659,4.693 18.667,4.712 18.674,4.734C18.765,5.027 18.838,5.327 18.903,5.629C18.923,5.721 18.94,5.812 18.957,5.904C19,6.131 19.033,6.36 19.061,6.593C19.072,6.687 19.084,6.781 19.093,6.877C19.122,7.194 19.143,7.516 19.143,7.841C19.143,11.742 17.006,15.139 13.843,16.942C13.111,17.36 12.323,17.687 11.494,17.919C11.406,17.944 11.318,17.966 11.23,17.988C10.913,18.068 10.591,18.132 10.264,18.181C10.156,18.198 10.049,18.218 9.939,18.231C9.52,18.283 9.098,18.317 8.667,18.317C8.342,18.317 8.02,18.297 7.703,18.269C7.608,18.26 7.514,18.247 7.419,18.235C7.186,18.208 6.957,18.173 6.73,18.131C6.638,18.114 6.546,18.098 6.455,18.079C6.152,18.014 5.852,17.941 5.56,17.85C5.538,17.843 5.519,17.833 5.497,17.826C5.227,17.74 4.96,17.642 4.699,17.536C4.606,17.498 4.514,17.456 4.422,17.415C4.227,17.328 4.035,17.236 3.847,17.138C3.758,17.091 3.669,17.045 3.581,16.996C3.325,16.853 3.072,16.703 2.83,16.541C2.829,16.54 2.827,16.54 2.826,16.539C4.707,19.334 7.901,21.174 11.524,21.174C17.309,21.174 22,16.484 22,10.698C22,7.075 20.161,3.881 17.365,2ZM4.37,3.079C4.042,3.386 3.732,3.713 3.443,4.057C2.698,4.951 2.153,6.018 2.033,7.175C2.011,7.394 2,7.616 2,7.841C2,10.418 3.464,12.65 5.605,13.76C5.13,12.842 4.857,11.803 4.857,10.698C4.857,8.883 5.585,7.238 6.762,6.036V3.079H4.37ZM11.524,3.079V5.936V6.412C11.524,7.548 10.727,8.496 9.662,8.734C9.859,9.849 10.828,10.698 12,10.698C13.315,10.698 14.381,9.632 14.381,8.317V5.936H15.333L14.381,3.079H11.524Z" id="path_0"/></svg>
